X:1
T:Title
%%score ( 1 2 ) { 3 | 4 }
L:1/8
Q:1/4=92
M:3/4
K:Ab
V:1 treble nm="Grand Piano, Soprano"
V:2 treble 
V:3 bass nm="Choir Pad, Fort Myers, Z. Parvin, 1875"
V:4 bass 
V:1
 [Ec][=D_c] [E=c] [CA]3 | [FA][=EG] [FA] [DF]3 | [DF][DF] [DF] [CE]2 [Ec]- | [Ec] [EA]2 [EB]3 | %4
w: By~Zimri~Mullen~Parvin,~1875 * * *||||
 [Ec][=D_c] [E=c] [CA]3 | [FA][=EG] [FA] [DF]3 | [Fd][Ac] [FB] A2 B- | B [EG]2 [EA]3- | [EA]4 z2 |] %9
w: |||||
V:2
 x6 | x6 | x6 | x6 | x6 | x6 | z2 z E3- | E z z2 z2 | x6 |] %9
V:3
 A,A, A, A,3 | DD D A,3 | A,A, A, A,3- | A, A,2 G,3 | A,A, A, A,3 | DD D A,3 | B,A, D C2 D- | %7
 D B,2 C3- | C4 z2 |] %9
V:4
 A,,A,, .A,,2 z2 | D,D, D, D,3 | D,D, D, A,,3- | A,, C,2 E,3 | A,,A,, .A,,2 z2 | D,D, D, D,3 | %6
 B,,C, D, E,3- | E, E,2 A,,3- | A,,4 z2 |] %9

